X:6
T:The Boy in the Gap
R:reel
D:Snug in the Blanket,P.O'Brien,J.Gans,D.Sproule
O:third turn composed by Paddy Taylor
Z:Paul Stewart Cranford (P.S.C.), <http://www.cranfordpub.com>
L:1/8
Q:333
M:C|
K:Dmix
D2 FA decB|AGBd cAGE|D2 FA decB|AcGE EDDC|
D2 FA decB|AGBd cAGE|D2 FA decB|AcGE EDD||
K:D
||g|fefg fedf|eAfA efdB|ABcd edcd|eaag eage|
fefg fedf|eAfA efdB|ABcd edcB|ABGA EFGA||
||dffe dffe|ce ~e2 cege|df ~f2 defg|aAcd edag|
fdef dBAF|GdBG EAGE|D2 FA de=cB|ABGA EFGE|]
